X:64
T:The Bucks of Oranmore
M:4/4
L:1/8
K:AMix
A3 F A2 dB|A2 FA BE E2|A3 F A2 AB|defd ecdB|
A2 AF A2 dB|A2 FA BE E2|DEFG AFAB|defd ecdB||
ADFD ADBD|ADFA BE E2|ADFD A2 AB|defd ecdB|
ADFD ADBD|ADFA BE E2|DEFG AFAB|defd efge ||
a2 fd edBf|a2 fa be e2|a2 fd edBd|gefd edBf|
a2 fd edBf|a2 fa be e2|fdad bdaf|(3efg fd edBe||
f2 df (3efe de|f2 df edBe|f2 df edBd|gefd edBe|
f2 df (3efe de|f2 df edBe|fdad bdaf|(3efg fd edBd ||
Adfd edfd|Adfd edBd|Adfd adfd|(3efg fd edBd|
Adfd edfd|Adfd edBe|fdad bdaf|(3efg fd efdB |>|
